X:1
T:Title
%%score 1 2
L:1/8
Q:1/4=90
M:9/8
K:F
V:1 treble nm="Strings 1, Soprano"
V:2 bass nm="Strings 1, Bass"
V:1
 z3 z2 [FA] [F_A]2 [F=A] | [EB]3- [EB]2 [Ed] [Ec]2 [EB] | [FA]3- [FA]2 [FA] [FB]2 [Fc] | %3
w: 1.~In side~ the~|door,~ * O~ safe~ re|treat,~ * From~ storm y~|
 [Fd]3- [Fd]2 [Ed] [Ec]2 [GB] | [FA]3- [FA]2 [Fc] [Fd]2 [Fc] | [FA]3- [FA]2 [FA] [EG]2 F | %6
w: winds~ * that~ fierce ly~|beat,~ * From~ tem pest~|waves~ * that~ rise~ and~|
 [FB]3- [FB]2 [FB] [FA]2 [DF] | [EG]3- [EG]2 [GB] [FA]2 [EG] | [CF]3- [CF]2 [DF] [DG]2 [DB] | %9
w: swell,~ * In side~ the~|door,~ * here~ all~ is~|well.~ * * * *|
 [Fd]3- [Fd]2 [DF] [DG]2 [DB] | [Fd]3- [Fd]2 [Ff] [Fe]2 [Fd] | [Fc]3- [Fc]2 [Fd] [Fc]2 [FB] | %12
w: |||
 [FA]3- [FA]2 [Fc] [Fd]2 [Fc] | [Fd]3- [Fd]2 [Fe] [Fd]2 [Gc] | [FA]3- [FA]2 [FA] [FA]2 [FB] | %15
w: |||
 [Fc]3- [Fc]2 [FB] [FA]2 F | [EG]3- [EG]2 [CA] [CA]2 [CB] | [Fc]3- [Fc]2 [Fc] [Fd]2 [FB] | %18
w: |||
 [Fc]3- [Fc]2 [FA] [FA]2 [DF] | [EG]3- [EG]2 [GB] [FA]2 [EG] | [CF]6 z3 |] %21
w: |||
V:2
 z3 z2 [F,C] [F,=B,]2 [F,C] | [C,C]3- [C,C]2 [C,G,] [C,G,]2 [C,C] | %2
 [F,C]3- [F,C]2 [_E,C] [D,B,]2 [C,A,] | [B,,B,]3- [B,,B,]2 [C,G,] [D,G,]2 [E,C] | %4
 [F,C]3- [F,C]2 [F,A,] [F,B,]2 [F,A,] | [F,C]3- [F,C]2 [F,,C] [G,,C]2 [A,,_E] | %6
 [B,,D]3- [B,,D]2 [B,,D] [F,C]2 [F,A,] | [C,B,]3- [C,B,]2 [C,D] [C,C]2 [C,B,] | %8
 [F,,A,]3- [F,,A,]2 [B,,B,] [B,,B,]2 [B,,F,] | [B,,B,]3- [B,,B,]2 [B,,B,] [B,,B,]2 [B,,F,] | %10
 [B,,B,]3- [B,,B,]2 [B,,D] [B,,C]2 [B,,B,] | [F,A,]3- [F,A,]2 [F,B,] [F,A,]2 [F,D] | %12
 [F,C]3- [F,C]2 [F,A,] [F,B,]2 [F,A,] | [B,,B,]3- [B,,B,]2 [B,,B,] [D,A,]2 [E,C] | %14
 [F,C]3- [F,C]2 [F,C] [F,C]2 [F,G,] | [F,A,]3- [F,A,]2 [F,D] [F,C]2 [D,=B,] | %16
 [C,C]3- [C,C]2 F, F,2 [F,G,] | [F,A,]3- [F,A,]2 [F,A,] [F,B,]2 [F,D] | %18
 [F,A,]3- [F,A,]2 [F,C] [F,C]2 [F,A,] | [C,B,]3- [C,B,]2 [C,D] [C,C]2 [C,B,] | [F,,A,]6 z3 |] %21

